X:1
T:Puisque vertu
T:Puisque vertu
T:Thomas Crecquillon
C:Thomas Crecquillon
%%score [ 1 [ 2 3 ] 4 ]
L:1/8
Q:1/4=88
M:2/2
K:F
V:1 treble nm="Superius" snm="S"
V:2 treble-8 nm="Tenor 1" snm="T 1"
V:3 treble-8 nm="Tenor 2" snm="T 2"
V:4 bass nm="Bass" snm="B"
V:1
 F8 | F4 G4 | A4 z2 A2 | B2 c2 d2 d2 | c2 A2 c2 d2 | e2 f2 e2 d2- | d2 c4 B2 | c4 z2 c2 | %8
w: Puis-|que ver-|tu en|a- mour n'a plus|lieu, puis- que ver-|tu en a- mour|_ n'a plus|lieu, et|
w: Con-|trainct je|suis de|ve- nir di- re'a-|dieu, de ve- nir|di- re'a- * *||dieu, à|
 d2 d2 c2 c2 | c3 B A2 G2 | F2 G2 A2 B2 | A2 G3 F F2- | F2 E2 F4- | !fermata!F8 :| z4 z2 F2 | %15
w: qu'on n'y tient ve-|ri té ni pro-|mes- * * *||* * se,|_|il|
w: vous que fus- tes|aul- tre- fois ma|mais- tres- * *||* * se,|_||
 F2 F2 G2 G2 | A3 B c2 d2 | c2 B4 A2- | A2 G2 A4- | A4 z2 A2 | A2 A2 B2 B2 | A2 G2 F3 G | %22
w: m'en des- plaist mais|j'ay moin- dre tris-|tes- * *|* * se|_ quant|je com- prens que|vien- drez à _|
w: |||||||
 A2 B2 G2 A2 | F4 E4 | G4 G2 G2 | A8 | z2 F2 F2 F2 | B2 B2 A3 B | c2 d2 c2 B2- | B2 AG A2 F2 | %30
w: _ sen- * *|* tir|com- bien va-|loit|com- bien va-|loit à ser- vir|mon a- dres- *|* * * se, a-|
w: ||||||||
 A8 |: G4 F4- | F2 F2 B2 B2 | A2 G2 F2 A2 | d2 d2 c3 B | A2 G4 F2- | F2 E2 F4- |[M:2/4] F2 F2 | %38
w: lors|se- ra|_ trop tard le|re- pen- tir, trop|tard le re- *||* pen- tir,|_ a-|
w: ||||||||
[M:2/2] A8 :| F2 E2 F4- | F8 |] %41
w: lors|(pen)- * tir.|_|
w: |||
V:2
 c8 | d4 e4 | f4 z2 c2 | d2 e2 f3 g | a2 f4 f2 | e2 d2 c2 A2 | a2 g2 f2 d2 | e2 e2 f2 a2 | %8
w: Puis-|que ver-|tu en|a- mour n'a plus|lieu, puis- que|ver- tu en a-|mour n'a _ _|_ plus lieu, et|
w: Con-|trainct je|suis de|ve- nir di- re'a-|dieu, de ve-|nir di- re'a- *||dieu, à vous qui|
 g2 f4 e2 | f2 c2 c2 c2 | d2 e2 f4- | f2 e2 d4 | c4 c4- | !fermata!c8 :| c4 c2 c2 | d6 e2 | %16
w: qu'on n'y tient|ve- ri- té ni|pro- mes- *||* se,|_|il m'en des-|plaist _|
w: fus- * tes|aul- tre- fois ma|mais- tres- *||* se,|_|||
 f2 f4 f2 | f2 f2 f2 f2 | d3 e f4- | f4 z2 f2 | f2 f2 d2 d2 | e4 d2 f2- | fe d4 c2- | c2 B2 c4 | %24
w: _ mais j'ay|moin- dre tris- tes-|se _ _|_ quant|je com- prens que|vien- drez à|_ _ sen- *|* * tir|
w: ||||||||
 z2 e2 e2 e2 | f2 c2 c2 c2 | f4 z2 d2 | d2 e2 f3 e/d/ | c2 f4 e2 | f8 | z2 c2 f4 |:"^b" d2 e2 c4 | %32
w: com- bien va-|loit, com- bien va-|loit à|ser- vir mon _ _|_ a- dres-|se,|a- lors|se- ra trop|
w: ||||||||
 d2 d2 f4- | f2 e2 f2 f2 | d2 f4 e2 | f2 d2 c2 B2 | c4 z2 A2 |[M:2/4] c3 B |[M:2/2] A2 c2 f4 :| %39
w: tard le re-|* pen- tir, trop|tard le re-|* * * pen-|tir, a-|lors se-|ra, a- lors-|
w: |||||||
 c8- | c8 |] %41
w: tir.|_|
w: ||
V:3
 A8 | A4 c4 | c4 A4 | F2 G2 B2 B2 | A2 A2 A2 B2 | c2 d2 e2 f2- | f2 e2 d4 | c4 z2 A2 | B2 B2 G4 | %9
w: Puis-|que ver-|tu en|a- mour n'a plus|lieu, puis- que ver-|tu en a- mour|_ n'a plus|lieu, et|qu'on n'y tient|
w: Con-|trainct je|suis de|ve- nir di- re'a-|dieu, de ve- nir|di- re'a- * *||dieu, à|vous qui fus-|
 F2 A2 F2 G2 | A2 c4 d2 | c3 B A2 B2 | G4 F4- | !fermata!F8 :| z8 | z2 B2 B2 B2 | c2 F2 A2 B2 | %17
w: ve- ri- té ni|pro- mes- *||* se,|_||il m'en des-|plaist mais j'ay moin-|
w: tes aul- tre- fois|ma mais- tres-||* se,|_||||
 c2 d3 c A2 | B4 A2 c2 | d2 c2 A2 A2- | A2 d4 B2 | c4 A2 d2 | c2 B2 c4 | d4 G2 G2 | G2 G2 c4- | %25
w: dre tris- * *|tes- se quant|je com- prens que|_ vien- drez|à _ sen-||* tir com-|bien va- loit,|
w: ||||||||
 c4 z2 A2 | A2 A2 d2 B2 | B2 B2 c3 B | A2 F2 A2 B2 | c4 z2 A2 | c3 B AG c2- |: c2 B4 A2 | %32
w: _ com-|bien va- loit à|ser- vir mon _|_ a- dres- *|se, a-|lors _ _ _ se-|* ra trop|
w: |||||||
 B2 B2 d2 d2 | c3 B A2 F2 | B2 B2 A2 G2 | F2 B2 A2 GF | G4 F4 |[M:2/4] z2 A2 |[M:2/2] c3 B AG c2 :| %39
w: tard le re- pen-|tir, _ _ trop|tard se- ra le|re- * * * *|pen- tir,|a-|lors _ _ _ se-|
w: |||||||
 G4 F4- | F8 |] %41
w: pen- tir.|_|
w: ||
V:4
 F,8 | D,4 C,4 |"^-natural" F,2 F,2 F,3 E, | D,2 C,2 B,,C, D,E, | F,6 D,2 | C,2 B,,2 C,2 D,2- | %6
w: Puis-|que ver-|tu en a- mour|n'a plus _ _ _ _|lieu, puis-|que ver- tu en|
w: Con-|trainct je|suis de ve- nir|di- re'a- * * * *|dieu, de|ve- nir di- re'a-|
 D,2 E,2 F,2 G,2 | C,2 C,2 F,2 F,2 | B,,4 C,4 | z2 F,2 F,2 E,2 | D,2 C,2 F,2 B,,2 | %11
w: _ a- mour n'a|plus lieu, et qu'on|n'y tient|ve- ri- té|ni pro- mes- *|
w: |dieu, à vous qui|fus- tes|aul- tre- fois|ma mais- tres- *|
 F,2 C,2 D,2 B,,2 | C,4 F,4- | !fermata!F,8 :| F,8 | B,4 G,4 | F,2 F,2 F,2 B,,2 | F,2 B,,2 F,4 | %18
w: |* se,|_|il|m'en des-|plaist mais j'ay moin-|dre tris- tes-|
w: |* se,|_|||||
 G,4 F,4 | z2 F,2 F,2 F,2 | D,2 D,2 G,4 | C,4 D,3 E, | F,2 G,2 E,2 F,2 | D,4 C,4 | z2 C,2 C,2 C,2 | %25
w: * se|quant je com-|prens que vien-|drez à _|_ sen- * *|* tir|com- bien va-|
w: |||||||
 F,4 z2 F,2 | F,2 F,2 B,3 A, | G,2 G,2 F,4- | F,2 B,,2 F,2 G,2 | F,8- | F,4 F,4 |: %31
w: loit, com-|bien va- loit _|_ mon _|_ a- dres- *|se,|_ a-|
w: ||||||
"^b" G,2 E,2 F,4 | z2 B,,2 B,,C,D,E, | F,2 C,2 D,2 D,2 | B,,C,D,E, F,2 C,2 | D,2 B,,2 C,2 D,2 | %36
w: lors se- ra|trop tard _ _ _|_ le re- pen-|tir _ _ _ _ le|re- * * *|
w: |||||
 C,4 F,4- |[M:2/4] F,4- |[M:2/2] F,4 F,4 :| C,4 F,4- | F,8 |] %41
w: pen- tir,|_|* a-|pen- tir.|_|
w: |||||

